Hatter-kde/actions/22/depth16to8.svg

<svg xmlns="http://www.w3.org/2000/svg" viewBox="0 0 22 22">
  <defs id="defs3051">
    <style type="text/css" id="current-color-scheme">
      .ColorScheme-Text {
        color:#363636;
      }
      </style>
  </defs>
 <path 
    style="fill:currentColor;fill-opacity:1;stroke:none" 
	d="M 11 3 L 11 4 A 7 7 0 0 1 17.308594 8 L 13.699219 8 L 13.699219 9 L 17.699219 9 L 18.699219 9 L 18.699219 8.8867188 L 18.699219 8 L 18.699219 4 L 17.699219 4 L 17.699219 6.65625 A 7.999998 8 0 0 0 11 3 z M 3.3007812 13 L 3.3007812 13.113281 L 3.3007812 14 L 3.3007812 18 L 4.3007812 18 L 4.3007812 15.34375 A 7.999998 8 0 0 0 11 19 L 11 18 A 7 7 0 0 1 4.6914062 14 L 8.3007812 14 L 8.3007812 13 L 4.2988281 13 L 3.3007812 13 z "
	class="ColorScheme-Text"
    />
  <path
     style="fill:#da4453"
     d="M 16 12 A 2 2 0 0 0 14 14 A 2 2 0 0 0 14.679688 15.5 A 2 2 0 0 0 14 17 A 2 2 0 0 0 16 19 A 2 2 0 0 0 18 17 A 2 2 0 0 0 17.320312 15.5 A 2 2 0 0 0 18 14 A 2 2 0 0 0 16 12 z M 16 13 A 1 1 0 0 1 17 14 A 1 1 0 0 1 16 15 A 1 1 0 0 1 15 14 A 1 1 0 0 1 16 13 z M 16 16 A 1 1 0 0 1 17 17 A 1 1 0 0 1 16 18 A 1 1 0 0 1 15 17 A 1 1 0 0 1 16 16 z "
     id="path8" />
  <path
     style="fill:#1d99f3"
     d="M 3 3 L 3 4 L 4 4 L 4 10 L 5 10 L 5 3 L 4 3 L 3 3 z M 8 3 A 2 1.999998 0 0 0 6 5 L 6 8 A 2 1.999998 0 0 0 8 10 A 2 1.999998 0 0 0 10 8 A 2 1.999998 0 0 0 8 6 A 2 1.999998 0 0 0 7 6.2695312 L 7 5 A 1 1 0 0 1 8 4 A 1 1 0 0 1 9 5 L 10 5 A 2 1.999998 0 0 0 8 3 z M 8 7 A 1 1 0 0 1 9 8 A 1 1 0 0 1 8 9 A 1 1 0 0 1 7 8 A 1 1 0 0 1 8 7 z "
     id="path12" />
</svg>

<?xml version="1.0" encoding="UTF-8"?>
<svg viewBox="0 0 22 22" xmlns="http://www.w3.org/2000/svg">
 <defs id="defs3051">
  <style id="current-color-scheme" type="text/css">.ColorScheme-Text {
        color:#363636;
      }</style>
 </defs>
 <path class="ColorScheme-Text" d="m11 3v1a7 7 0 0 1 6.3086 4h-3.6094v1h4 1v-0.11328-0.88672-4h-1v2.6562a8 8 0 0 0-6.6992-3.6562zm-7.6992 10v0.11328 0.88672 4h1v-2.6562a8 8 0 0 0 6.6992 3.6562v-1a7 7 0 0 1-6.3086-4h3.6094v-1h-4.002-0.99805z" fill="currentColor"/>
 <path id="path8" d="m16 12a2 2 0 0 0-2 2 2 2 0 0 0 0.67969 1.5 2 2 0 0 0-0.67969 1.5 2 2 0 0 0 2 2 2 2 0 0 0 2-2 2 2 0 0 0-0.67969-1.5 2 2 0 0 0 0.67969-1.5 2 2 0 0 0-2-2zm0 1a1 1 0 0 1 1 1 1 1 0 0 1-1 1 1 1 0 0 1-1-1 1 1 0 0 1 1-1zm0 3a1 1 0 0 1 1 1 1 1 0 0 1-1 1 1 1 0 0 1-1-1 1 1 0 0 1 1-1z" fill="#da4453"/>
 <path id="path12" d="m3 3v1h1v6h1v-7h-1-1zm5 0a2 2 0 0 0-2 2v3a2 2 0 0 0 2 2 2 2 0 0 0 2-2 2 2 0 0 0-2-2 2 2 0 0 0-1 0.26953v-1.2695a1 1 0 0 1 1-1 1 1 0 0 1 1 1h1a2 2 0 0 0-2-2zm0 4a1 1 0 0 1 1 1 1 1 0 0 1-1 1 1 1 0 0 1-1-1 1 1 0 0 1 1-1z" fill="#1d99f3"/>
</svg>
